packages/tokens/icons/save/size24Px.svg

<svg viewBox="0 0 24 24" fill="none" xmlns="http://www.w3.org/2000/svg" width="1em" height="1em"><path d="M3.5 5C3.5 4.17157 4.17157 3.5 5 3.5L16.71 3.5C17.1079 3.5 17.4894 3.65804 17.7707 3.93934L20.0607 6.22931C20.342 6.51061 20.5 6.89214 20.5 7.28997L20.5 19C20.5 19.8284 19.8284 20.5 19 20.5L5 20.5C4.17157 20.5 3.5 19.8284 3.5 19L3.5 5Z" stroke="currentColor"/><path d="M6.5 4C6.5 3.72386 6.72386 3.5 7 3.5L15 3.5C15.2761 3.5 15.5 3.72386 15.5 4V6C15.5 6.82843 14.8284 7.5 14 7.5L8 7.5C7.17157 7.5 6.5 6.82843 6.5 6L6.5 4Z" stroke="currentColor"/><path d="M12.5 3V7.15385" stroke="currentColor"/><path d="M6.5 20C6.5 20.2761 6.72386 20.5 7 20.5H17C17.2761 20.5 17.5 20.2761 17.5 20V13C17.5 12.1716 16.8284 11.5 16 11.5L8 11.5C7.17157 11.5 6.5 12.1716 6.5 13L6.5 20Z" stroke="currentColor"/><path d="M9 14.5L15 14.5" stroke="currentColor" stroke-linecap="round"/><path d="M9 17.5L15 17.5" stroke="currentColor" stroke-linecap="round"/></svg>

<svg xmlns="http://www.w3.org/2000/svg" fill="none" viewBox="0 0 24 24" width="1em" height="1em"><path stroke="currentColor" d="M3.5 5A1.5 1.5 0 0 1 5 3.5h11.71a1.5 1.5 0 0 1 1.06.44l2.29 2.29a1.5 1.5 0 0 1 .44 1.06V19a1.5 1.5 0 0 1-1.5 1.5H5A1.5 1.5 0 0 1 3.5 19V5Z"/><path stroke="currentColor" d="M6.5 4a.5.5 0 0 1 .5-.5h8a.5.5 0 0 1 .5.5v2A1.5 1.5 0 0 1 14 7.5H8A1.5 1.5 0 0 1 6.5 6V4Zm6-1v4.154M6.5 20a.5.5 0 0 0 .5.5h10a.5.5 0 0 0 .5-.5v-7a1.5 1.5 0 0 0-1.5-1.5H8A1.5 1.5 0 0 0 6.5 13v7Z"/><path stroke="currentColor" stroke-linecap="round" d="M9 14.5h6m-6 3h6"/></svg>
